X:32
T:Siege of Curzola. THO5.032, The
M:6/8
L:1/8
B:Thompson's Complete Collection of 200 Favourite Dances Vol.5
F:https://www.libraryofdance.org/manuals/1780c-Thompson-Compleat-5.pdf
Z:vmp. Peter Dunk 2024
Q:3/8=100
K:Am
e>de cAc|e>de cAc|fed cBA|^G>^FE E3|
g>fg ece|g>fg ece|c'ge fdB|cGE [C3c3]:|
|:ece geg|dBd gBg|cAc ecA|^GBG E2E|
ABc def|eae fed|cea dB^G|AEC [A,3A3]:|
W:
W:Hey contrary sides ./.
W:then on your own sides ./:
W:lead down the middle, up again, cast off :/.
W:hands 4 round at bottom, right and left at top :/:

